src/icons/scalable/actions/flathub-symbolic.svg

<svg width="16" height="16" viewBox="0 0 16 16" xmlns="http://www.w3.org/2000/svg">
<path fill="#222222" d="M15.2044 12.0127C15.2044 12.3707 14.9162 12.6589 14.5582 12.6589H9.38855C9.03056 12.6589 8.74236 12.3707 8.74236 12.0127C8.74236 11.6547 9.03056 11.3665 9.38855 11.3665H14.5582C14.9162 11.3665 15.2044 11.6547 15.2044 12.0127ZM11.9734 8.78169C12.3314 8.78169 12.6196 9.06989 12.6196 9.42789V14.5975C12.6196 14.9555 12.3314 15.2437 11.9734 15.2437C11.6154 15.2437 11.3272 14.9555 11.3272 14.5975V9.42789C11.3272 9.06989 11.6154 8.78169 11.9734 8.78169ZM15.4682 2.7602L14.7971 2.37273L10.9349 0.142914C10.7732 0.0495562 10.5898 0.000409928 10.4031 0.000409941C10.2163 0.000409954 10.0329 0.0495593 9.87121 0.142917C9.70951 0.236275 9.57523 0.370552 9.48187 0.532252C9.38851 0.693953 9.33937 0.877379 9.33937 1.06409V1.83902V6.29866C9.33937 6.48537 9.38851 6.6688 9.48187 6.8305C9.57523 6.9922 9.70951 7.12647 9.87121 7.21983C10.0329 7.31319 10.2163 7.36234 10.4031 7.36234C10.5898 7.36234 10.7732 7.31319 10.9349 7.21983L11.606 6.83237L15.4682 4.60255C15.6299 4.50919 15.7641 4.37492 15.8575 4.21322C15.9509 4.05152 16 3.86809 16 3.68137C16 3.49466 15.9509 3.31123 15.8575 3.14953C15.7641 2.98783 15.6299 2.85356 15.4682 2.7602ZM2.09684 8.62922H5.21448C6.20143 8.62922 6.99599 9.42378 6.99599 10.4107V13.5284C6.99599 14.5153 6.20143 15.3099 5.21448 15.3099H2.09684C1.10988 15.3099 0.315331 14.5153 0.315331 13.5284V10.4107C0.315331 9.42378 1.10988 8.62922 2.09684 8.62922ZM7.36598 3.68299C7.36598 4.65978 6.97795 5.59656 6.28726 6.28725C5.59656 6.97795 4.65978 7.36598 3.68299 7.36598C2.7062 7.36598 1.76942 6.97795 1.07872 6.28726C0.388027 5.59656 3.88651e-07 4.65978 0 3.68299C-2.13823e-08 3.19933 0.0952622 2.72041 0.28035 2.27357C0.465437 1.82673 0.736725 1.42072 1.07872 1.07872C1.42072 0.736725 1.82673 0.465438 2.27357 0.28035C2.72041 0.0952622 3.19933 -2.13823e-08 3.68299 0C4.65978 1.0364e-06 5.59656 0.388027 6.28726 1.07872C6.97795 1.76942 7.36598 2.7062 7.36598 3.68299Z"/>
</svg>

<svg xmlns="http://www.w3.org/2000/svg" width="16" height="16" viewBox="0 0 16 16"><path fill="#222" d="M15.204 12.013a.645.645 0 0 1-.646.646h-5.17a.645.645 0 0 1-.646-.646c0-.358.289-.646.647-.646h5.17c.357 0 .645.288.645.646m-3.23-3.231c.357 0 .646.288.646.646v5.17a.645.645 0 0 1-.647.646.645.645 0 0 1-.646-.646v-5.17c0-.358.288-.646.646-.646m3.494-6.022-.67-.387-3.863-2.23a1.064 1.064 0 0 0-1.596.921V6.3a1.064 1.064 0 0 0 1.596.92l.671-.387 3.862-2.23a1.064 1.064 0 0 0 0-1.842M2.097 8.63h3.117c.987 0 1.782.794 1.782 1.78v3.118c0 .987-.795 1.782-1.782 1.782H2.097a1.78 1.78 0 0 1-1.782-1.782v-3.117c0-.987.795-1.782 1.782-1.782m5.269-4.947a3.683 3.683 0 1 1-7.366 0 3.683 3.683 0 0 1 7.366 0"/></svg>
